X: 42812
T: Who Stole The Miner's Hat?
R: polka
M: 2/4
K: Amixolydian
A>B cd|ec d2|AB/c/ de|fg e2|
A>B cd|ec d>B|BA GB|1 A2 AF:|2 A2 A2|
|:a2 ge|fd e2|A>B cd|ec (3efg|
a2 ge|fd e>B|BA GB|A2 A2:|

